X: 12
T: Tandem
%R: hornpipe
B: "Twenty Four Country Dances with Figures for the Year 1809", Button & Whitaker, p.6 #2
F: http://www.vwml.org/browse/browse-collections-dance-tune-books/browse-button1809
Z: 2014 John Chambers <jc:trillian.mit.edu>
M: C|
L: 1/8
K: A
% - - - - - - - - - - - - - - - - - - - - - - - - - - - - -
(e>d) |\
(c>B)(c>d) e2(a>g) | (f>e)(f>g) a2(g>f) | (e>d)(e>f) e2(d>c) | (B>A)(B>c) B2(e>d) |
(c>B)(c>d) e2(a>g) | (f>e)(f>g) a2(g>f) | (e>c)(A>c) (B>A)(B>c) | A2A2 A2 :|
|: (c>e) |\
(d>c)(B>A) (G>A)(B>c) | (A>B)(c>d) e2(f>e) | (d>e)(B>e) (c>e)(A>c) | (B>A)(G>F) E2(A>G) |
(F>G)(A>F) d2(B>A) | (G>A)(B>G) e2(a>g) | (f>e)(d>c) (B>f)(e>d) | c2A2 A2 :|
% - - - - - - - - - - Dance description - - - - - - - - - -
%%begintext align
%% Foot it & change sides, same back again, down the mid:
%% up again, right & left at top.
%%endtext

%%sep 1 1 500
%%sep 1 1 500
